X:1
T:Title
%%score ( 1 2 3 ) { ( 4 7 ) | ( 5 6 ) }
L:1/8
Q:1/4=115
M:4/4
K:G
V:1 treble nm="Grand Piano, Staff"
V:2 treble 
V:3 treble 
V:4 bass nm="Choir Pad, Cheshire, CM"
V:7 bass 
V:5 bass 
V:6 bass 
V:1
 [B,E]4 [B,E]2 [B,F]2 | [B,G]2 [EG]2 F2 z F | E6 [CE]2 | G4 z4 | [DB]6 [GB]2 | %5
w: By~Este�s~Psalter,~1592 * *|||||
 [GB]3 [GB] [FA]2 [DF]2 | G2 [EA]2 [^DB]4- | [DB]2 [=DB]2 [FA]2 [EG]2 | [EA]2 [^DF]2 E4- | E4 z4 |] %10
w: |||||
V:2
 x8 | z4 E4 | x8 | B,2 z G [DA]2 [Dd]2 | x8 | x8 | x8 | x8 | x8 | x8 |] %10
V:3
 x8 | z4 z2 ^D2 | x8 | z2 B,2 z4 | x8 | x8 | x8 | x8 | x8 | x8 |] %10
V:4
 G,4 G,2 F,2 | E,2 B,2 .B,4 | G,6 E,2 | z2 G,2 z4 | G,6[K:treble] D2 | D3 D D2 D2 | B,2 A,2 F,4- | %7
 F,2 D2 D2 B,2 | C2 B,A, G,4- | G,4 z4 |] %10
V:5
 E,4 E,2 ^D,2 | z2 G,,2 B,,2 z A, | E,6 A,,2 | z4 D,2 D,2 | G,,6 G,,2 | G,3 G, D,2 D,2 | %6
 E,2 C,2 B,,4- | B,,2 G,,2 D,2 E,2 | A,,2 B,,2 E,4- | E,4 z4 |] %10
V:6
 x8 | z4 z2 B,,2 | x8 | x8 | x8 | x8 | x8 | x8 | x8 | x8 |] %10
V:7
 x8 | x8 | x8 | E,F, z E, G,2 F,2 | x6[K:treble] x2 | x8 | x8 | x8 | x8 | x8 |] %10

